!!!OTL: 479. Lotte auf Karls Grabe (1780).
!!!COM: Volksweise
!!!ARE: Europa, Mitteleuropa, Deutschland, Thueringen
!!!SCT: B0479
!!!TXL: @@DE
!!!YEM: Copyright 1995, estate of Helmut Schaffrath.
**kern	**text
*ICvox	*
*Ivox	*
*clefG2	*
*M4/4	*
*met(c)	*
*k[b-]	*
*F:	*
!LO:TX:a:t=Ruhig.	!
{8cc	Hier
=1	=1
8ccL	ruhſt
8ddJ	.
8b-L	du,
8ccJ	.
4.a	Karl,
8a	hier
=2	=2
8aL	werd'
8b-J	.
8gL	ich
8aJ	.
4.f}	ruhn,
{8cc	mit
=3	=3
4.ff	dir
!LO:N:vis=16	!
8ee	in
(8ddL	ei-
8ccJ)	.
8b-L	-nem
8aJ	.
=4	=4
4a	Gra-
4g	-be;
4r	.
8r}	.
{8cc	noch
=5	=5
8ccL	ein-
8ddJ	.
8b-L	-mal
8ccJ	.
4.a	denk'
8a	ich,
=6	=6
8aL	da
8b-J	.
8gL	ich
8aJ	.
4.f}	nun
{8cc	bald
=7	=7
4.ff	aus-
!LO:N:vis=16	!
8ee	-ge-
(8ddL	-run-
8ccJ)	.
8b-L	-gen
8aJ	.
=8	=8
4a	ha-
4g	-be,
4r	.
8r}	.
{8cc	des
=9	=9
8ccL	letʒ-
8eeJ	.
8eeL	-ten
8ggJ	.
8ggL	Mor-
8eeJ	.
8ccL	-gens,
8b-J	.
=10	=10
8a/L	da
8ccJ	.
8ccL	du
8ffJ	.
4.ff}	kamſt
{8ff	und
=11	=11
8ffL	freund-
8ee	.
8ddJ	.
8cc	-lich
(8ddL	von
8ee	.
8ffJ)	.
8b-	mir
=12	=12
4a	Ab-
4g	-ſchied
4f	nahmſt.
8r}	.
==	==
!!!AGN: Liebes - Lied, Leid, Klage, Tod
!!!GTL: Liebeslieder - Liebesleid
!!!ONB: ESAC (Essen Associative Code) Database: BOEHME
!!!AMT: simple quadruple
!!!AIN: vox
!!!EED: Helmut Schaffrath
!!!EEV: 1.0
!!Volksweiſe aus dem 18. Jahrh. noch 1840 in Thür. gehört.
!!@@COMMENT:"Gedicht von Henriette Chriſtiane vom Hagen 1780. Ʒuerſt in Voß's Muſenalm. für 1782.
!!S. 174. - Das überlange Gedicht voller Redſeligkeit hat noch 4 Strophen mehr; man findet ſie in Finks "Hausſchatʒ"."
!!@@END:
!!!Text: Henriette Chriſtiane vom Hagen
!!!URL-scan: https://archive.org/details/BoehmeVtLieder1895/page/n385/mode/2up
!!!ENC: Anna Maria Matuszewska
!!!EEV: 2024/10/07
*-	*-
